src/images/andrie_logo-site.svg

<svg fill="none" height="283" viewBox="0 0 368 283" width="368" xmlns="http://www.w3.org/2000/svg"><path d="m328.23 107.313c5.31-1.229 8.624-6.525 7.395-11.838-1.224-5.308-6.523-8.618-11.832-7.392-4.11.95-7.003 4.202-7.54 8.146 0 0-87.451 20.319-92.696 21.624-1.548-3.586-5.82-22.201-10.059-35.136l-21.499-77.41c-.648-2.603-6.165-4.340997-10.056-4.340997-3.899 0-9.088 1.738997-9.734 3.906997l-39.599 133.981c-10.657 2.344-18.12 3.982-18.12 3.982-2.214-3.3-6.214-5.224-10.319-4.277-5.3081 1.229-8.6191 6.525-7.3951 11.838 1.229 5.307 6.5251 8.618 11.8351 7.392 3.981-.92 6.893-3.898 7.558-7.687 0 0 5.607-1.24 14.035-3.106l-29.392 99.449c-1.6241 5.216-5.1951 8.259-9.0861 9.128l-8.117 2.169c-2.921.869-5.189 2.613-5.189 5.216 0 2.175 2.267 3.042 5.189 3.042h66.8541c2.914 0 5.19-.867 5.19-3.042 0-2.602-2.275-4.776-5.19-5.216l-6.171-.87c-6.488-.866-10.705-4.778-10.705-12.594 0-2.173.649-5.219 1.299-7.387l25.455-96.571c21.703-4.811 43.859-9.731 46.919-10.448.022.049.042.089.063.136l24.592 101.234c.974 3.472 1.944 8.683 1.944 12.166 0 6.948-3.89 10.429-8.76 12.164l-6.163 2.169c-.475.141-.924.314-1.358.502-2.974-.358-6.157-.838-9.509-1.323-9.986-1.446-41.685-14.408-38.959-18.105 2.727-3.7 13.185-.488 13.185-.488-16.808-6.349-23.907-6.874-32.536-19.082-6.837-9.673 10.424 31.861 10.424 31.861s2.691-1.646 2.165-6.125c-.52-4.483 31.714 37.681 79.227 30.796 11.387-1.65 8.918 8.087 15.317 7.083 6.192-1.905-.347-9.799 10.606-13.312 45.719-14.65 56.213-66.686 57.707-62.431 1.495 4.261 4.632 4.556 4.632 4.556s-2.691-44.896-4.594-33.206c-2.404 14.756-8.554 18.344-20.88 31.419 0 0 7.992-7.47 12.062-5.342 4.073 2.128-18.735 27.682-27.077 33.361-13.004 8.857-22.86 16.077-30.312 8.701-.064-.197-.131-.393-.189-.593l-33.575-120.889 92.651-21.633c2.277 3.038 6.379 4.728 10.307 3.822zm-165.767 24.964 21.098-80.043c.649-2.173 4.22-2.173 4.869 0l17.107 70.423c-3.367.829-22.932 5.173-43.074 9.62z" fill="#b1c6e1"/><g fill="#fff"><path d="m113.029 180.399v26.442h-9.044l-14.5289-.373v-44.446h21.1799v7.315c3.655-5.766 10.266-8.471 19.941-8.458 14.913.107 22.431 5.125 22.554 15.05v30.912h-23.074v-26.442c.102-6.755-16.923-6.857-17.028 0z"/><path d="m200.49 145.557h4.054 16.63v61.285h-20.684l-.003-6.989c-4.647 4.947-11.489 8.073-19.119 8.073-14.006 0-25.361-10.531-25.361-23.522 0-12.992 11.355-23.523 25.361-23.523 6.261 0 11.993 2.106 16.42 5.594v-20.917h2.702zm-22.329 39.522c0 5.914 4.795 10.706 10.708 10.706 5.914 0 10.705-4.792 10.705-10.706 0-5.913-4.791-10.708-10.705-10.708-5.913-.001-10.708 4.795-10.708 10.708z"/><path d="m250.052 185.39v21.451h-2.182-4.47-16.635v-44.819h21.104v7.628c4.05-6.432 11.041-9.493 20.974-9.186v18.065c-11.292-.185-18.687 1.249-18.791 6.861z"/><path d="m296.268 162.023h-23.161v44.819h23.161z"/><path d="m296.268 143.459h-23.161v12.989h23.161z"/><path d="m341.559 193.627 23.037.027c-5.34 8.393-17.451 14.271-31.553 14.271-18.876 0-34.178-10.531-34.178-23.522 0-12.992 15.302-23.523 34.178-23.523 18.878 0 34.177 10.531 34.177 23.523 0 1.271.209 2.753-.429 3.734l-22.077.021-23.268-.171c1.54 5.36 6.177 9.253 11.661 9.253 3.257.001 6.217-1.375 8.452-3.613zm2.814-14.577c-1.838-4.749-6.189-8.087-11.266-8.087s-9.432 3.338-11.27 8.087z"/><path d="m.748047 206.842 28.837953-61.285h26.997l28.575 61.285h-26.214l-2.863-7.797h-26.49l-3.153 7.797zm50.521953-20.904-7.792-21.234-8.588 21.234z"/></g></svg>

<svg width="368" height="283" viewBox="0 0 368 283" fill="none" xmlns="http://www.w3.org/2000/svg">
<path d="M328.23 107.313C333.54 106.084 336.854 100.788 335.625 95.475C334.401 90.167 329.102 86.857 323.793 88.083C319.683 89.033 316.79 92.285 316.253 96.229C316.253 96.229 228.802 116.548 223.557 117.853C222.009 114.267 217.737 95.652 213.498 82.717L191.999 5.307C191.351 2.704 185.834 0.966003 181.943 0.966003C178.044 0.966003 172.855 2.705 172.209 4.873L132.61 138.854C121.953 141.198 114.49 142.836 114.49 142.836C112.276 139.536 108.276 137.612 104.171 138.559C98.8629 139.788 95.5519 145.084 96.7759 150.397C98.0049 155.704 103.301 159.015 108.611 157.789C112.592 156.869 115.504 153.891 116.169 150.102C116.169 150.102 121.776 148.862 130.204 146.996L100.812 246.445C99.1879 251.661 95.6169 254.704 91.7259 255.573L83.6089 257.742C80.6879 258.611 78.4199 260.355 78.4199 262.958C78.4199 265.133 80.6869 266 83.6089 266H150.463C153.377 266 155.653 265.133 155.653 262.958C155.653 260.356 153.378 258.182 150.463 257.742L144.292 256.872C137.804 256.006 133.587 252.094 133.587 244.278C133.587 242.105 134.236 239.059 134.886 236.891L160.341 140.32C182.044 135.509 204.2 130.589 207.26 129.872C207.282 129.921 207.302 129.961 207.323 130.008L231.915 231.242C232.889 234.714 233.859 239.925 233.859 243.408C233.859 250.356 229.969 253.837 225.099 255.572L218.936 257.741C218.461 257.882 218.012 258.055 217.578 258.243C214.604 257.885 211.421 257.405 208.069 256.92C198.083 255.474 166.384 242.512 169.11 238.815C171.837 235.115 182.295 238.327 182.295 238.327C165.487 231.978 158.388 231.453 149.759 219.245C142.922 209.572 160.183 251.106 160.183 251.106C160.183 251.106 162.874 249.46 162.348 244.981C161.828 240.498 194.062 282.662 241.575 275.777C252.962 274.127 250.493 283.864 256.892 282.86C263.084 280.955 256.545 273.061 267.498 269.548C313.217 254.898 323.711 202.862 325.205 207.117C326.7 211.378 329.837 211.673 329.837 211.673C329.837 211.673 327.146 166.777 325.243 178.467C322.839 193.223 316.689 196.811 304.363 209.886C304.363 209.886 312.355 202.416 316.425 204.544C320.498 206.672 297.69 232.226 289.348 237.905C276.344 246.762 266.488 253.982 259.036 246.606C258.972 246.409 258.905 246.213 258.847 246.013L225.272 125.124L317.923 103.491C320.2 106.529 324.302 108.219 328.23 107.313ZM162.463 132.277L183.561 52.234C184.21 50.061 187.781 50.061 188.43 52.234L205.537 122.657C202.17 123.486 182.605 127.83 162.463 132.277Z" fill="#B1C6E1"/>
<path d="M113.029 180.399V206.841H103.985L89.4561 206.468V162.022H110.636V169.337C114.291 163.571 120.902 160.866 130.577 160.879C145.49 160.986 153.008 166.004 153.131 175.929V206.841H130.057V180.399C130.159 173.644 113.134 173.542 113.029 180.399Z" fill="white"/>
<path d="M200.49 145.557H204.544H221.174V206.842H200.49L200.487 199.853C195.84 204.8 188.998 207.926 181.368 207.926C167.362 207.926 156.007 197.395 156.007 184.404C156.007 171.412 167.362 160.881 181.368 160.881C187.629 160.881 193.361 162.987 197.788 166.475V145.558H200.49V145.557ZM178.161 185.079C178.161 190.993 182.956 195.785 188.869 195.785C194.783 195.785 199.574 190.993 199.574 185.079C199.574 179.166 194.783 174.371 188.869 174.371C182.956 174.37 178.161 179.166 178.161 185.079Z" fill="white"/>
<path d="M250.052 185.39V206.841H247.87H243.4H226.765V162.022H247.869V169.65C251.919 163.218 258.91 160.157 268.843 160.464V178.529C257.551 178.344 250.156 179.778 250.052 185.39Z" fill="white"/>
<path d="M296.268 162.023H273.107V206.842H296.268V162.023Z" fill="white"/>
<path d="M296.268 143.459H273.107V156.448H296.268V143.459Z" fill="white"/>
<path d="M341.559 193.627L364.596 193.654C359.256 202.047 347.145 207.925 333.043 207.925C314.167 207.925 298.865 197.394 298.865 184.403C298.865 171.411 314.167 160.88 333.043 160.88C351.921 160.88 367.22 171.411 367.22 184.403C367.22 185.674 367.429 187.156 366.791 188.137L344.714 188.158L321.446 187.987C322.986 193.347 327.623 197.24 333.107 197.24C336.364 197.241 339.324 195.865 341.559 193.627ZM344.373 179.05C342.535 174.301 338.184 170.963 333.107 170.963C328.03 170.963 323.675 174.301 321.837 179.05H344.373Z" fill="white"/>
<path d="M0.748047 206.842L29.586 145.557H56.583L85.158 206.842H58.944L56.081 199.045H29.591L26.438 206.842H0.748047ZM51.27 185.938L43.478 164.704L34.89 185.938H51.27Z" fill="white"/>
</svg>
